X:5760
T:Gan Ainm
R:Jig
S:
H:
N:
D:Milltown 1999 
Z:Adrian Scahill
M:6/8
L:1/8
K:D
E|FDF A2B|=cAd cAG|Adc d2e|fed =cAG|\
FDF A2B|=c2d cAG|Adc AGE|1 FDC D3:|2 FDC D2g||\
fdg fdc|Add cde|fdg fdc|ABc dfg|\
aba gfe|f3 edc|Adc AGE|FDC D2g:||


